styles/icons/upload.svg

<svg xmlns="http://www.w3.org/2000/svg" width="24" height="24" viewBox="0 0 24 24">
  <path fill="#333" d="M11,7.11668875 L7.7065847,10.4113203 L6.29289322,8.99710674 L11.9978931,3.28999996 L17.7028931,8.99710674 L16.2892016,10.4113203 L13,7.12090402 L13,17 L11,17 L11,7.11668875 Z M19,19 L19,15 L21,15 L21,20 C21,20.5522847 20.5522847,21 20,21 L4,21 C3.44771525,21 3,20.5522847 3,20 L3,15 L5,15 L5,19 L19,19 Z"/>
</svg>

<svg fill="#333333" width="24" height="24" viewBox="0 0 24 24" xmlns="http://www.w3.org/2000/svg">
    <path d="M11,7.1l-3.3,3.3L6.3,9L12,3.3L17.7,9l-1.4,1.4L13,7.1V17h-2V7.1z M19,19v-4h2v5c0,0.6-0.4,1-1,1H4c-0.6,0-1-0.4-1-1v-5h2v4H19z"/>
</svg>
